X:387
T: Changzhe geer qu fangyang
N: C1889
O: China, Guangdong Yingde
S: II, 358]
R: Shange, Paoma diao]
M: 2/4
L: 1/16
K: Bb
c2c2c2d2 | c2cBG4 | d4B2d2 | cdc6
c2c2c2d2 | c2cBG4 | c4B2c2 | B2G6
d2c6 | c2c2d2d2 | c2cBG4 | d4B2d2 | cdc6
c2c2c2d2 | c2cBG4 | c4B2c2 | B2G6
d2c6 | B2G2B2c2 | B2G6

